X: 3982
T: Blacksmith's, The
R: reel
M: 4/4
K: Fmajor
D3 E||F2 CF A,FCF|FEFG EFGE|F2 CF A,FCF|AdcB AFGE|
F2 CF A,FCF|FEFG EFGE|F2 CF A,FCF|AdcB AFAB||
c/c/c cd cAFA|c/c/c dc BAGB|AF F/F/F FGAc|cdcB AGFG|
Acc=B cAFA|c/c/c dc BAGA|Bcdc BAGF|EFGF ECDE||

